!!!OTL: Lobt Gott ihr Christen alle.
!!!ARE: Europa, Mitteleuropa, Deutschland
!!!SCT: A0395
!!!TXL: @@DE
!!!YEM: Copyright 1995, estate of Helmut Schaffrath.
**kern	**text
*M4/2	*
*met(c|)	*
*clefC3	*
*k[b-]	*
*G:dor	*
=1	=1
!LO:TX:a:t=dor. tr	!
1ryy	.
{1d	Lobt
=2	=2
2d	Got
2d	ir
2d	Chri-
2e	-ſten
=3	=3
1f	al-
2f}	-len,
{2f	in
=4	=4
2g	Teutſcher
2d	.
2e	Na-
2e	-ti-
=5	=5
1d	-on,
2r}	.
{2d	ʒu
=6	=6
2d	Rom
2d	iſt
2d	vmb-
2d	-ge-
=7	=7
1c	-fal-
2c}	-len
{2d	die
=8	=8
2B-	braut
2G	von
2A	Ba-
2A	-by-
=9	=9
1G	-lon;
2r}	.
{2G	ſie
=10	=10
2A	ſaß
2A	in
2A	ho-
2A	-hen
=11	=11
1B-	eh-
2A}	-ren,
{2A	dar-
=12	=12
2d	-ʒu
2d	in
2d	ho-
2c	-hem
=13	=13
1A	preyß,
2r}	.
{2d	ir
=14	=14
2d	ſtul
2d	iſt
2e	ir
2e	ʒer-
=15	=15
1f	-ſchmol-
2f}	-ʒen,
{2e	er
=16	=16
2d	war
2B-	ge-
2c/	-baut
2A	auff
=17	=17
0G/ll}	eyß.
==	==
!!!GTL: Einige historisch-politische Lieder
!!!AGN: Romanze, Ballade, Lied, religioeses Lied
!! J. Ott 1544 III No. 5.
!!!ONB: ESAC (Essen Associative Code) Database: ALTDEU
!!!AMT: simple quadruple
!!!AIN: vox
!!!EED: Helmut Schaffrath
!!!EEV: 1.0
!!!RDF**kern: l = terminal long
!!!AMD: Dorian
!!!URL-scan: https://rosdok.uni-rostock.de/mcrviewer/recordIdentifier/rosdok_ppn738218359/iview2/phys_0568.iview2?x=-495.6391625615763&y=327.03891623951495&scale=0.4629418472063854&rotation=0&layout=singlePageLayout&logicalDiv=log_0014
!!!ENC: Anna Maria Matuszewska
!!!EEV: 2024/15/03
*-	*-
